X: 081
T: Lord St Vincents Hornpipe
%R: hornpipe, reel
Z: 2018 John Chambers <jc:trillian.mit.edu>
B: Bland and Weller "Country Dances for the Year 1798" p.8 #1
M: C
L: 1/8
K: Bb
% - - - - - - - - - - - - - - - - - - - - - - - - -
fe |\
d2 B4 dB | cBAG F2FE | DFBF GecA | B2B2 B2fe | d2 B4 gf | =e2 c4 cB |
Acfa dbg=e | f2f2f2 :: fe | .d(BAB) .d(BAB) | .G(EDE) .G(EDE) | cded edcB |
BAcA F2fg | .f(BAB) .g(BAB) | .a(BAB) .b(BAB) | GBce dBcA | B2B2B2 :|
% - - - - - - - - - - - - - - - - - - - - - - - - -
%%begintext align
%%  Hey contrary sides .| D.o on your own sides .|.
%% lead down the Middle up again foot it to the top
%% Couple :|. hands 4 at bottom and right and
%% left at top :|:
%%endtext
% - - - - - - - - - - - - - - - - - - - - - - - - -
